; generated by PrusaSlicer 2.7.1+MacOS-arm64 on 2024-04-03 at 08:40:00 UTC


;
;
; 

; external perimeters extrusion width = 0.45mm
; perimeters extrusion width = 0.45mm
; infill extrusion width = 0.45mm
; solid infill extrusion width = 0.45mm
; top infill extrusion width = 0.40mm
; support material extrusion width = 0.35mm
; first layer extrusion width = 0.42mm

M73 P0 R103
M73 Q0 S105
M201 X1000 Y1000 Z200 E5000 ; sets maximum accelerations, mm/sec^2
M203 X200 Y200 Z12 E120 ; sets maximum feedrates, mm / sec
M204 S1250 T1250 ; sets acceleration (S) and retract acceleration (R), mm/sec^2
M205 X8.00 Y8.00 Z0.40 E4.50 ; sets the jerk limits, mm/sec
M205 S0 T0 ; sets the minimum extruding and travel feed rate, mm/sec

; printing object Bin-Mate Pico Case (Top) id:0 copy 0
; stop printing object Bin-Mate Pico Case (Top) id:0 copy 0

;TYPE:Custom
M862.3 P "MK3" ; printer model check
M862.1 P0.4 ; nozzle diameter check
M115 U3.12.2 ; tell printer latest fw version
G90 ; use absolute coordinates
M83 ; extruder relative mode
M104 S215 ; set extruder temp
M140 S60 ; set bed temp
M190 S60 ; wait for bed temp
M109 S215 ; wait for extruder temp
G28 W ; home all without mesh bed level
G80 ; mesh bed leveling

G1 Z0.2 F720
G1 Y-3 F1000 ; go outside print area
G92 E0
G1 X60 E9 F1000 ; intro line
G1 X100 E12.5 F1000 ; intro line

G92 E0
M221 S95

; Don't change E values below. Excessive value can damage the printer.
M907 E430 ; set extruder motor current
G21 ; set units to millimeters
G90 ; use absolute coordinates
M83 ; use relative distances for extrusion
M900 K0.05 ; Filament gcode LA 1.5
M900 K30 ; Filament gcode LA 1.0
M107
;LAYER_CHANGE
;Z:0.2
;HEIGHT:0.2
;BEFORE_LAYER_CHANGE
G92 E0.0
;0.2


G1 E-.8 F2100
G1 Z.2 F720
;AFTER_LAYER_CHANGE
;0.2
G1 X83.996 Y83.419 F10800
G1 Z.2 F720
G1 E.8 F2100
M204 S800
;TYPE:Skirt/Brim
;WIDTH:0.42
G1 F1200
G1 X84.681 Y82.911 E.02674
G1 X86.653 Y82.287 E.06485
G1 X163.289 Y82.29 E2.40287
G1 X164.309 Y82.484 E.03255
G1 X165.288 Y82.9 E.03335
G1 X166.412 Y83.796 E.04507
G1 X167.305 Y85.134 E.05044
G1 X167.713 Y86.679 E.0501
G1 X167.713 Y123.318 E1.14879
G1 X167.399 Y124.63 E.0423
G1 X166.941 Y125.55 E.03222
G1 X166.004 Y126.581 E.04368
G1 X165.319 Y127.089 E.02674
G1 X163.347 Y127.713 E.06485
G1 X86.682 Y127.713 E2.40378
G1 X85.37 Y127.399 E.0423
G1 X84.45 Y126.941 E.03222
G1 X83.419 Y126.004 E.04368
G1 X82.911 Y125.319 E.02674
G1 X82.287 Y123.347 E.06485
G1 X82.287 Y86.682 E1.14961
G1 X82.601 Y85.37 E.0423
G1 X83.059 Y84.45 E.03222
G1 X83.956 Y83.464 E.04179
M204 S1000
G1 X84.233 Y83.719 F10800
M204 S800
G1 F1200
G1 X84.261 Y83.688 E.00131
G1 X84.879 Y83.234 E.02404
G1 X86.682 Y82.664 E.05929
G1 X163.271 Y82.667 E2.40139
G1 X164.217 Y82.85 E.03021
G1 X165.115 Y83.236 E.03065
G1 X166.153 Y84.071 E.04177
G1 X166.949 Y85.262 E.04492
G1 X167.336 Y86.704 E.04681
G1 X167.336 Y123.295 E1.14729
G1 X167.038 Y124.519 E.0395
G1 X166.616 Y125.357 E.02942
G1 X165.739 Y126.312 E.04065
G1 X165.121 Y126.766 E.02404
G1 X163.318 Y127.336 E.05929
G1 X86.705 Y127.336 E2.40215
G1 X85.481 Y127.038 E.0395
G1 X84.643 Y126.616 E.02942
G1 X83.688 Y125.739 E.04065
G1 X83.234 Y125.121 E.02404
G1 X82.664 Y123.318 E.05929
G1 X82.664 Y86.705 E1.14797
G1 X82.962 Y85.481 E.0395
G1 X83.384 Y84.643 E.02942
G1 X84.192 Y83.763 E.03746
M204 S1000
G1 X84.468 Y84.019 F10800
M204 S800
G1 F1200
G1 X84.524 Y83.959 E.00257
G1 X85.076 Y83.556 E.02143
G1 X86.711 Y83.041 E.05375
G1 X163.252 Y83.044 E2.39989
G1 X164.124 Y83.216 E.02787
G1 X164.94 Y83.571 E.0279
G1 X165.893 Y84.345 E.03849
G1 X166.617 Y85.443 E.04124
G1 X166.959 Y86.728 E.04169
G1 X166.959 Y123.271 E1.14578
G1 X166.677 Y124.406 E.03667
G1 X166.293 Y125.161 E.02656
G1 X165.476 Y126.041 E.03765
G1 X164.924 Y126.444 E.02143
G1 X163.289 Y126.959 E.05375
G1 X86.729 Y126.959 E2.40049
G1 X85.594 Y126.677 E.03667
M73 P0 R102
G1 X84.839 Y126.293 E.02656
G1 X83.959 Y125.476 E.03765
G1 X83.556 Y124.924 E.02143
G1 X83.041 Y123.289 E.05375
G1 X83.041 Y86.729 E1.14631
G1 X83.323 Y85.594 E.03667
M73 Q0 S104
G1 X83.707 Y84.839 E.02656
G1 X84.428 Y84.063 E.03321
M204 S1000
G1 X84.702 Y84.32 F10800
M204 S800
G1 F1200
G1 X84.786 Y84.231 E.00384
G1 X85.272 Y83.88 E.0188
G1 X86.74 Y83.418 E.04825
G1 X163.233 Y83.421 E2.39838
G1 X164.029 Y83.581 E.02546
G1 X164.764 Y83.905 E.02519
G1 X165.63 Y84.617 E.03515
G1 X166.285 Y85.623 E.03764
G1 X166.582 Y86.752 E.0366
G1 X166.582 Y123.248 E1.14431
G1 X166.317 Y124.292 E.03377
G1 X165.97 Y124.964 E.02371
G1 X165.214 Y125.769 E.03463
G1 X164.728 Y126.12 E.0188
G1 X163.261 Y126.582 E.04822
G1 X86.752 Y126.582 E2.39889
G1 X85.708 Y126.317 E.03377
G1 X85.036 Y125.97 E.02371
G1 X84.231 Y125.214 E.03463
G1 X83.88 Y124.728 E.0188
G1 X83.418 Y123.261 E.04822
G1 X83.418 Y86.752 E1.14471
G1 X83.683 Y85.708 E.03377
G1 X84.03 Y85.036 E.02371
G1 X84.661 Y84.364 E.0289
M204 S1000
G1 X84.933 Y84.623 F10800
M204 S800
G1 F1200
G1 X85.046 Y84.504 E.00515
G1 X85.466 Y84.204 E.01618
G1 X86.768 Y83.795 E.04279
G1 X163.214 Y83.798 E2.39691
G1 X163.896 Y83.935 E.02181
G1 X164.587 Y84.239 E.02367
G1 X165.367 Y84.888 E.03181
G1 X165.929 Y85.75 E.03226
G1 X166.205 Y86.778 E.03337
G1 X166.205 Y123.223 E1.14271
G1 X165.958 Y124.175 E.03084
M73 P1 R102
G1 X165.649 Y124.765 E.02088
G1 X164.954 Y125.496 E.03163
G1 X164.534 Y125.796 E.01618
M73 Q1 S104
G1 X163.232 Y126.205 E.04279
G1 X86.777 Y126.205 E2.39719
G1 X85.825 Y125.958 E.03084
G1 X85.235 Y125.649 E.02088
G1 X84.504 Y124.954 E.03163
G1 X84.204 Y124.534 E.01618
G1 X83.795 Y123.232 E.04279
G1 X83.795 Y86.777 E1.14302
G1 X84.042 Y85.825 E.03084
G1 X84.351 Y85.235 E.02088
G1 X84.892 Y84.666 E.02462
M204 S1000
G1 X85.162 Y84.927 F10800
M204 S800
G1 F1200
G1 X85.304 Y84.78 E.00641
G1 X85.659 Y84.53 E.01361
G1 X86.797 Y84.172 E.03741
G1 X163.195 Y84.176 E2.39541
G1 X163.799 Y84.3 E.01933
G1 X164.408 Y84.572 E.02091
G1 X165.101 Y85.157 E.02844
G1 X165.595 Y85.928 E.02871
G1 X165.828 Y86.802 E.02836
G1 X165.828 Y123.198 E1.14117
G1 X165.6 Y124.056 E.02784
G1 X165.329 Y124.563 E.01803
G1 X164.696 Y125.22 E.02861
G1 X164.341 Y125.47 E.01361
G1 X163.203 Y125.828 E.03741
G1 X86.802 Y125.828 E2.3955
G1 X85.944 Y125.6 E.02784
G1 X85.437 Y125.329 E.01803
G1 X84.78 Y124.696 E.02861
G1 X84.53 Y124.341 E.01361
G1 X84.172 Y123.203 E.03741
G1 X84.172 Y86.802 E1.14133
G1 X84.4 Y85.944 E.02784
G1 X84.671 Y85.437 E.01803
G1 X85.12 Y84.97 E.02031
M204 S1000
G1 X85.395 Y85.271 F10800
M204 S800
G1 F1200
G1 X85.85 Y84.856 E.01931
G1 X86.826 Y84.549 E.03208
G1 X163.174 Y84.553 E2.39384
G1 X163.699 Y84.664 E.01682
G1 X164.227 Y84.904 E.01819
G1 X164.834 Y85.425 E.02508
G1 X165.239 Y86.056 E.02351
G1 X165.451 Y86.828 E.0251
G1 X165.451 Y123.172 E1.13954
G1 X165.242 Y123.934 E.02477
G1 X165.012 Y124.359 E.01515
G1 X164.15 Y125.144 E.03656
G1 X163.174 Y125.451 E.03208
G1 X86.828 Y125.451 E2.39378
G1 X86.066 Y125.242 E.02477
G1 X85.641 Y125.012 E.01515
G1 X84.856 Y124.15 E.03656
G1 X84.549 Y123.174 E.03208
G1 X84.549 Y86.828 E1.1396
G1 X84.758 Y86.066 E.02477
G1 X84.988 Y85.641 E.01515
G1 X85.35 Y85.311 E.01536
M204 S1000
G1 X85.596 Y85.556 F10800
M204 S800
G1 F1200
G1 X85.814 Y85.337 E.00969
G1 X86.039 Y85.183 E.00855
G1 X86.855 Y84.926 E.02682
G1 X163.153 Y84.93 E2.39227
G1 X163.597 Y85.027 E.01425
G1 X164.043 Y85.234 E.01542
G1 X164.566 Y85.691 E.02178
G1 X164.885 Y86.186 E.01846
G1 X165.074 Y86.855 E.0218
G1 X165.074 Y123.145 E1.13785
G1 X164.886 Y123.809 E.02164
G1 X164.696 Y124.151 E.01227
G1 X164.186 Y124.663 E.02266
G1 X163.961 Y124.817 E.00855
G1 X163.145 Y125.074 E.02682
G1 X86.855 Y125.074 E2.39202
G1 X86.191 Y124.886 E.02164
M73 P1 R101
G1 X85.849 Y124.696 E.01227
G1 X85.337 Y124.186 E.02266
G1 X85.183 Y123.961 E.00855
G1 X84.926 Y123.145 E.02682
G1 X84.926 Y86.855 E1.13785
G1 X85.114 Y86.191 E.02164
M73 Q1 S103
G1 X85.304 Y85.849 E.01227
G1 X85.553 Y85.598 E.01109
M204 S1000
G1 X85.812 Y85.884 F10800
M204 S800
G1 F1200
G1 X86.225 Y85.512 E.01743
G1 X86.884 Y85.303 E.02168
G1 X163.131 Y85.307 E2.39067
G1 X163.856 Y85.562 E.0241
G1 X164.296 Y85.954 E.01848
G1 X164.531 Y86.32 E.01364
G1 X164.697 Y86.883 E.0184
G1 X164.697 Y123.117 E1.13609
G1 X164.382 Y123.94 E.02763
G1 X163.775 Y124.488 E.02564
G1 X163.116 Y124.697 E.02168
G1 X86.883 Y124.697 E2.39023
G1 X86.06 Y124.382 E.02763
G1 X85.512 Y123.775 E.02564
G1 X85.303 Y123.116 E.02168
G1 X85.303 Y86.883 E1.13606
G1 X85.618 Y86.06 E.02763
G1 X85.767 Y85.925 E.0063
M204 S1000
G1 X86.014 Y86.198 F10800
M204 S800
G1 F1200
G1 X86.407 Y85.843 E.01661
G1 X86.913 Y85.68 E.01667
G1 X163.109 Y85.684 E2.38907
G1 X163.668 Y85.891 E.01869
G1 X164.179 Y86.457 E.02391
G1 X164.32 Y86.912 E.01494
G1 X164.32 Y123.088 E1.13427
G1 X164.179 Y123.545 E.015
G1 X163.689 Y124.096 E.02312
G1 X163.087 Y124.32 E.02014
G1 X86.912 Y124.32 E2.38841
G1 X86.455 Y124.179 E.015
M73 P2 R101
M73 Q2 S103
G1 X85.904 Y123.689 E.02312
G1 X85.68 Y123.087 E.02014
G1 X85.68 Y86.912 E1.13424
G1 X85.928 Y86.275 E.02143
G1 X85.969 Y86.238 E.00173
M204 S1000
G1 X86.234 Y86.497 F10800
M204 S800
G1 F1200
G1 X86.583 Y86.176 E.01487
G1 X86.944 Y86.057 E.01192
G1 X163.087 Y86.061 E2.38741
G1 X163.478 Y86.218 E.01321
G1 X163.747 Y86.473 E.01162
G1 X163.943 Y86.944 E.016
G1 X163.943 Y123.056 E1.13227
G1 X163.766 Y123.503 E.01507
G1 X163.417 Y123.824 E.01487
G1 X163.056 Y123.943 E.01192
G1 X86.944 Y123.943 E2.38644
G1 X86.497 Y123.766 E.01507
G1 X86.176 Y123.417 E.01487
G1 X86.057 Y123.056 E.01192
G1 X86.057 Y86.944 E1.13227
G1 X86.212 Y86.553 E.01319
M204 S1000
G1 X86.532 Y86.728 F10800
M204 S800
G1 F1200
G1 X86.766 Y86.511 E.01001
G1 X86.979 Y86.434 E.0071
G1 X163.035 Y86.434 E2.38468
G1 X163.466 Y86.725 E.01631
G1 X163.566 Y86.979 E.00856
G1 X163.566 Y123.021 E1.13007
G1 X163.468 Y123.272 E.00845
G1 X163.234 Y123.489 E.01001
G1 X163.021 Y123.566 E.0071
G1 X86.979 Y123.566 E2.38424
G1 X86.728 Y123.468 E.00845
G1 X86.511 Y123.234 E.01001
G1 X86.434 Y123.021 E.0071
G1 X86.434 Y86.979 E1.13007
G1 X86.51 Y86.784 E.00656
M204 S1000
G1 X86.813 Y87.019 F10800
M204 S800
G1 F1200
G1 X86.952 Y86.84 E.00711
G1 X163.048 Y86.84 E2.38594
G1 X163.189 Y87.021 E.00719
G1 X163.189 Y122.979 E1.12744
G1 X163.048 Y123.16 E.00719
G1 X87.021 Y123.189 E2.38377
G1 X86.84 Y123.048 E.00719
M73 P2 R100
G1 X86.812 Y87.078 E1.12781
M204 S1000
; printing object Bin-Mate Pico Case (Top) id:0 copy 0
;WIPE_START
G1 F8640
G1 X86.813 Y87.019 E-.01363
G1 X86.952 Y86.84 E-.05233
G1 X90.131 Y86.84 E-.73404
;WIPE_END
G1 Z.6 F720
G1 X168.845 Y121.536 F10800
G1 Z.2 F720
M73 Q2 S102
G1 E.8 F2100
M204 S800
;TYPE:Support material
G1 F1200
G1 X169.086 Y122.204 E.02227
G1 X169.245 Y123.289 E.03438
G1 X169.038 Y124.532 E.03951
G1 X168.517 Y125.524 E.03513
G1 X167.926 Y126.238 E.02906
G1 X166.903 Y126.883 E.03792
G1 X166.369 Y127.775 E.0326
G1 X165.706 Y128.378 E.0281
G1 X164.656 Y128.984 E.03801
G1 X163.474 Y129.237 E.0379
G1 X162.312 Y129.123 E.03661
G1 X161.79 Y128.934 E.01741
G1 X160.581 Y129.252 E.0392
G1 X159.315 Y129.165 E.03979
G1 X158.903 Y128.99 E.01403
G1 X157.797 Y129.252 E.03564
G1 X156.532 Y129.165 E.03976
G1 X156.12 Y128.99 E.01403
G1 X155.014 Y129.252 E.03564
G1 X153.749 Y129.165 E.03976
G1 X153.337 Y128.99 E.01403
G1 X152.231 Y129.252 E.03564
G1 X150.965 Y129.165 E.03979
G1 X150.553 Y128.99 E.01403
G1 X149.447 Y129.252 E.03564
G1 X148.182 Y129.165 E.03976
G1 X147.77 Y128.99 E.01403
G1 X146.664 Y129.252 E.03564
G1 X145.388 Y129.164 E.0401
G1 X144.984 Y128.991 E.01378
G1 X143.881 Y129.252 E.03554
G1 X142.605 Y129.164 E.0401
G1 X142.2 Y128.991 E.01381
G1 X141.097 Y129.252 E.03554
G1 X139.822 Y129.164 E.04007
G1 X139.417 Y128.991 E.01381
G1 X138.314 Y129.252 E.03554
G1 X137.039 Y129.164 E.04007
G1 X136.634 Y128.991 E.01381
G1 X135.531 Y129.252 E.03554
G1 X134.255 Y129.164 E.0401
G1 X133.85 Y128.991 E.01381
G1 X132.747 Y129.252 E.03554
G1 X131.472 Y129.164 E.04007
G1 X131.067 Y128.991 E.01381
G1 X129.964 Y129.252 E.03554
G1 X128.689 Y129.164 E.04007
G1 X128.284 Y128.991 E.01381
G1 X127.181 Y129.252 E.03554
G1 X125.905 Y129.164 E.0401
G1 X125.5 Y128.991 E.01381
G1 X124.397 Y129.252 E.03554
G1 X123.122 Y129.164 E.04007
G1 X122.717 Y128.991 E.01381
G1 X121.614 Y129.252 E.03554
G1 X120.339 Y129.164 E.04007
G1 X119.934 Y128.991 E.01381
G1 X118.831 Y129.252 E.03554
G1 X117.555 Y129.164 E.0401
G1 X117.15 Y128.991 E.01381
G1 X116.047 Y129.252 E.03554
G1 X114.772 Y129.164 E.04007
G1 X114.367 Y128.991 E.01381
G1 X113.264 Y129.252 E.03554
G1 X111.989 Y129.164 E.04007
G1 X111.584 Y128.991 E.01381
G1 X110.481 Y129.252 E.03554
G1 X109.205 Y129.164 E.0401
G1 X108.8 Y128.991 E.01381
G1 X107.697 Y129.252 E.03554
G1 X106.422 Y129.164 E.04007
G1 X106.017 Y128.991 E.01381
G1 X104.914 Y129.252 E.03554
G1 X103.649 Y129.165 E.03976
G1 X103.237 Y128.99 E.01403
G1 X102.131 Y129.252 E.03564
G1 X100.855 Y129.164 E.0401
G1 X100.451 Y128.991 E.01378
G1 X99.347 Y129.252 E.03557
G1 X98.072 Y129.164 E.04007
G1 X97.667 Y128.991 E.01381
G1 X96.564 Y129.252 E.03554
G1 X95.299 Y129.165 E.03976
G1 X94.887 Y128.99 E.01403
G1 X93.781 Y129.252 E.03564
G1 X92.505 Y129.164 E.0401
G1 X92.101 Y128.991 E.01378
G1 X90.998 Y129.252 E.03554
G1 X89.732 Y129.165 E.03979
G1 X88.674 Y128.715 E.03605
G1 X87.875 Y129.049 E.02715
G1 X87.12 Y129.224 E.0243
G1 X85.931 Y129.157 E.03734
G1 X84.754 Y128.717 E.0394
G1 X83.702 Y127.872 E.04231
G1 X83.14 Y126.983 E.03298
G1 X82.896 Y126.388 E.02016
G1 X83.26 Y126.869 E.01891
G1 X84.947 Y128.002 E.06372
G1 X86.979 Y128.41 E.06498
G1 X163.02 Y128.41 E2.38421
G1 X165.014 Y128.018 E.06372
G1 X166.869 Y126.74 E.07063
G1 X168.002 Y125.053 E.06372
G1 X168.41 Y123.021 E.06498
G1 X168.41 Y120.813 E.06923
G1 X168.816 Y121.487 E.02467
M204 S1000
;WIPE_START
G1 F8640
G1 X168.41 Y120.813 E-.18168
G1 X168.41 Y123.021 E-.50983
G1 X168.317 Y123.482 E-.10849
;WIPE_END
G1 Z.6 F720
G1 X164.803 Y128.712 F10800
G1 Z.2 F720
G1 E.8 F2100
M204 S800
G1 F1200
G1 X164.803 Y128.405 E.00963
G1 X164.384 Y128.488 E.01339
G1 X164.384 Y128.695 E.00649
G1 X163.965 Y128.785 E.01344
G1 X163.965 Y128.57 E.00674
G1 X163.546 Y128.652 E.01339
G1 X163.546 Y128.875 E.00699
G1 X163.454 Y128.895 E.00295
G1 X163.127 Y128.862 E.0103
G1 X163.127 Y128.735 E.00398
G1 X162.708 Y128.749 E.01314
G1 X162.708 Y128.821 E.00226
G1 X162.388 Y128.79 E.01008
G1 X162.289 Y128.754 E.0033
G1 X162.289 Y128.58 E.00546
M204 S1000
G1 X161.032 Y128.97 F10800
M204 S800
G1 F1200
G1 X161.032 Y128.749 E.00693
G1 X160.613 Y128.749 E.01314
G1 X160.613 Y128.895 E.00458
G1 X160.553 Y128.909 E.00193
G1 X160.194 Y128.885 E.01128
G1 X160.194 Y128.749 E.00426
G1 X159.775 Y128.749 E.01314
G1 X159.775 Y128.856 E.00335
G1 X159.395 Y128.83 E.01194
G1 X159.356 Y128.58 E.00793
M204 S1000
G1 X158.099 Y129.006 F10800
M204 S800
G1 F1200
G1 X158.099 Y128.749 E.00806
G1 X157.68 Y128.749 E.01314
G1 X157.68 Y128.903 E.00483
G1 X157.261 Y128.875 E.01317
G1 X157.261 Y128.749 E.00395
G1 X156.842 Y128.749 E.01314
G1 X156.842 Y128.846 E.00304
G1 X156.612 Y128.83 E.00723
G1 X156.423 Y128.75 E.00643
G1 X156.423 Y128.58 E.00533
M204 S1000
G1 X155.585 Y128.942 F10800
M204 S800
G1 F1200
G1 X155.585 Y128.749 E.00605
G1 X155.166 Y128.749 E.01314
G1 X155.166 Y128.867 E.0037
G1 X154.986 Y128.909 E.0058
G1 X154.747 Y128.893 E.00751
G1 X154.747 Y128.749 E.00452
G1 X154.328 Y128.749 E.01314
G1 X154.328 Y128.865 E.00364
G1 X153.909 Y128.836 E.01317
G1 X153.909 Y128.58 E.00803
M204 S1000
G1 X152.652 Y128.977 F10800
M204 S800
G1 F1200
G1 X152.652 Y128.749 E.00715
G1 X152.234 Y128.749 E.01311
G1 X152.203 Y128.909 E.00511
G1 X151.815 Y128.883 E.01219
G1 X151.815 Y128.749 E.0042
G1 X151.396 Y128.749 E.01314
G1 X151.396 Y128.854 E.00329
G1 X151.045 Y128.83 E.01103
G1 X150.977 Y128.801 E.00232
G1 X150.977 Y128.58 E.00693
M204 S1000
G1 X149.72 Y129.013 F10800
M204 S800
G1 F1200
G1 X149.72 Y128.749 E.00828
G1 X149.301 Y128.749 E.01314
G1 X149.301 Y128.901 E.00477
G1 X148.882 Y128.873 E.01317
G1 X148.882 Y128.749 E.00389
G1 X148.463 Y128.749 E.01314
G1 X148.463 Y129.014 E.00831
M204 S1000
G1 X147.206 Y128.949 F10800
M204 S800
G1 F1200
G1 X147.206 Y128.749 E.00627
G1 X146.787 Y128.749 E.01314
G1 X146.787 Y128.874 E.00392
G1 X146.636 Y128.91 E.00487
G1 X146.368 Y128.891 E.00842
