; generated by PrusaSlicer 2.7.1+MacOS-arm64 on 2024-04-03 at 06:15:16 UTC


;
;
; 

; external perimeters extrusion width = 0.45mm
; perimeters extrusion width = 0.45mm
; infill extrusion width = 0.45mm
; solid infill extrusion width = 0.45mm
; top infill extrusion width = 0.40mm
; support material extrusion width = 0.35mm
; first layer extrusion width = 0.42mm

M73 P0 R68
M73 Q0 S69
M201 X1000 Y1000 Z200 E5000 ; sets maximum accelerations, mm/sec^2
M203 X200 Y200 Z12 E120 ; sets maximum feedrates, mm / sec
M204 S1250 T1250 ; sets acceleration (S) and retract acceleration (R), mm/sec^2
M205 X8.00 Y8.00 Z0.40 E4.50 ; sets the jerk limits, mm/sec
M205 S0 T0 ; sets the minimum extruding and travel feed rate, mm/sec

; printing object Bin-Mate Pico Case (Base) id:0 copy 0
; stop printing object Bin-Mate Pico Case (Base) id:0 copy 0

;TYPE:Custom
M862.3 P "MK3" ; printer model check
M862.1 P0.4 ; nozzle diameter check
M115 U3.12.2 ; tell printer latest fw version
G90 ; use absolute coordinates
M83 ; extruder relative mode
M104 S215 ; set extruder temp
M140 S60 ; set bed temp
M190 S60 ; wait for bed temp
M109 S215 ; wait for extruder temp
G28 W ; home all without mesh bed level
G80 ; mesh bed leveling

G1 Z0.2 F720
G1 Y-3 F1000 ; go outside print area
G92 E0
G1 X60 E9 F1000 ; intro line
G1 X100 E12.5 F1000 ; intro line

G92 E0
M221 S95

; Don't change E values below. Excessive value can damage the printer.
M907 E430 ; set extruder motor current
G21 ; set units to millimeters
G90 ; use absolute coordinates
M83 ; use relative distances for extrusion
M900 K0.05 ; Filament gcode LA 1.5
M900 K30 ; Filament gcode LA 1.0
M107
;LAYER_CHANGE
;Z:0.2
;HEIGHT:0.2
;BEFORE_LAYER_CHANGE
G92 E0.0
;0.2


G1 E-.8 F2100
G1 Z.2 F720
;AFTER_LAYER_CHANGE
;0.2
G1 X84.61 Y83.551 F10800
G1 Z.2 F720
G1 E.8 F2100
M204 S800
;TYPE:Skirt/Brim
;WIDTH:0.42
G1 F1200
G1 X85.473 Y82.913 E.03365
G1 X87.509 Y82.287 E.06679
G1 X162.455 Y82.29 E2.34988
G1 X163.675 Y82.54 E.03905
G1 X164.812 Y83.099 E.03973
G1 X166.475 Y84.634 E.07096
G1 X167.318 Y85.959 E.04924
G1 X167.713 Y87.548 E.05134
G1 X167.713 Y122.408 E1.09301
G1 X167.447 Y123.715 E.04182
G1 X166.851 Y124.882 E.04109
G1 X165.39 Y126.449 E.06717
G1 X164.527 Y127.087 E.03365
G1 X162.491 Y127.713 E.06679
G1 X87.592 Y127.713 E2.34841
G1 X86.285 Y127.447 E.04182
G1 X85.118 Y126.851 E.04109
G1 X83.551 Y125.39 E.06717
G1 X82.913 Y124.527 E.03365
G1 X82.287 Y122.491 E.06679
G1 X82.287 Y87.592 E1.09423
G1 X82.553 Y86.285 E.04182
G1 X83.149 Y85.118 E.04109
G1 X84.569 Y83.595 E.06529
M204 S1000
G1 X84.843 Y83.853 F10800
M204 S800
G1 F1200
G1 X84.872 Y83.822 E.00133
G1 X85.67 Y83.236 E.03104
G1 X87.537 Y82.664 E.06122
G1 X162.435 Y82.667 E2.34837
G1 X163.573 Y82.904 E.03645
M73 Q0 S68
G1 X164.619 Y83.424 E.03663
G1 X166.2 Y84.893 E.06767
G1 X166.983 Y86.134 E.04601
G1 X167.336 Y87.57 E.04637
G1 X167.336 Y122.389 E1.09173
G1 X167.099 Y123.567 E.03768
G1 X166.528 Y124.687 E.03942
G1 X165.128 Y126.178 E.06413
G1 X164.33 Y126.764 E.03104
G1 X162.463 Y127.336 E.06122
G1 X87.611 Y127.336 E2.34693
G1 X86.433 Y127.099 E.03768
G1 X85.313 Y126.528 E.03942
G1 X83.822 Y125.128 E.06413
G1 X83.236 Y124.33 E.03104
G1 X82.664 Y122.463 E.06122
G1 X82.664 Y87.611 E1.09276
G1 X82.901 Y86.433 E.03768
G1 X83.472 Y85.313 E.03942
G1 X84.802 Y83.896 E.06093
M204 S1000
G1 X85.076 Y84.155 F10800
M204 S800
G1 F1200
G1 X85.134 Y84.094 E.00264
G1 X85.866 Y83.56 E.02841
G1 X87.565 Y83.041 E.0557
G1 X162.415 Y83.044 E2.34687
G1 X163.471 Y83.267 E.03384
G1 X164.425 Y83.748 E.0335
G1 X165.924 Y85.151 E.06437
G1 X166.647 Y86.308 E.04278
G1 X166.959 Y87.592 E.04143
G1 X166.959 Y122.37 E1.09044
G1 X166.735 Y123.465 E.03504
G1 X166.205 Y124.489 E.03615
G1 X164.866 Y125.906 E.06113
G1 X164.134 Y126.44 E.02841
G1 X162.435 Y126.959 E.0557
G1 X87.63 Y126.959 E2.34546
G1 X86.535 Y126.735 E.03504
M73 P1 R68
M73 Q1 S68
G1 X85.511 Y126.205 E.03615
G1 X84.094 Y124.866 E.06113
G1 X83.56 Y124.134 E.02841
G1 X83.041 Y122.435 E.0557
G1 X83.041 Y87.63 E1.09129
G1 X83.265 Y86.535 E.03504
G1 X83.795 Y85.511 E.03615
G1 X85.035 Y84.199 E.0566
M204 S1000
G1 X85.308 Y84.458 F10800
M204 S800
G1 F1200
G1 X85.395 Y84.367 E.00395
G1 X86.062 Y83.883 E.02584
G1 X87.593 Y83.418 E.05017
G1 X162.396 Y83.421 E2.3454
G1 X163.323 Y83.615 E.0297
G1 X164.23 Y84.073 E.03186
G1 X165.648 Y85.408 E.06106
G1 X166.289 Y86.428 E.03777
G1 X166.582 Y87.616 E.03837
G1 X166.582 Y122.35 E1.08906
G1 X166.372 Y123.362 E.03241
G1 X165.884 Y124.29 E.03287
G1 X164.605 Y125.633 E.05815
G1 X163.938 Y126.117 E.02584
G1 X162.407 Y126.582 E.05017
G1 X87.65 Y126.582 E2.34395
G1 X86.638 Y126.372 E.03241
M73 P1 R67
G1 X85.71 Y125.884 E.03287
G1 X84.367 Y124.605 E.05815
G1 X83.883 Y123.938 E.02584
G1 X83.418 Y122.407 E.05017
G1 X83.418 Y87.65 E1.08978
G1 X83.628 Y86.638 E.03241
G1 X84.116 Y85.71 E.03287
G1 X85.266 Y84.502 E.05229
M204 S1000
G1 X85.538 Y84.762 F10800
M204 S800
G1 F1200
G1 X85.654 Y84.641 E.00526
G1 X86.256 Y84.208 E.02325
G1 X87.621 Y83.795 E.04471
G1 X162.376 Y83.798 E2.34389
G1 X163.219 Y83.978 E.02703
G1 X164.034 Y84.395 E.0287
G1 X165.37 Y85.665 E.0578
G1 X165.952 Y86.601 E.03456
G1 X166.205 Y87.638 E.03347
G1 X166.205 Y122.33 E1.08774
G1 X166.009 Y123.257 E.02971
G1 X165.564 Y124.089 E.02958
G1 X164.346 Y125.359 E.05517
G1 X163.744 Y125.792 E.02325
G1 X162.38 Y126.205 E.04468
G1 X87.67 Y126.205 E2.34248
G1 X86.743 Y126.009 E.02971
G1 X85.911 Y125.564 E.02958
G1 X84.641 Y124.346 E.05517
G1 X84.208 Y123.744 E.02325
G1 X83.795 Y122.38 E.04468
G1 X83.795 Y87.67 E1.08831
G1 X83.991 Y86.743 E.02971
G1 X84.436 Y85.911 E.02958
G1 X85.496 Y84.806 E.04801
M204 S1000
G1 X85.767 Y85.067 F10800
M204 S800
G1 F1200
G1 X85.913 Y84.916 E.00659
G1 X86.45 Y84.533 E.02068
G1 X87.648 Y84.172 E.03923
G1 X162.355 Y84.176 E2.34239
G1 X163.113 Y84.341 E.02432
G1 X163.835 Y84.717 E.02552
G1 X165.092 Y85.921 E.05458
G1 X165.594 Y86.722 E.02964
G1 X165.828 Y87.661 E.03034
G1 X165.828 Y122.309 E1.08636
G1 X165.646 Y123.149 E.02695
G1 X165.246 Y123.886 E.02629
G1 X164.087 Y125.084 E.05226
G1 X163.55 Y125.467 E.02068
G1 X162.352 Y125.828 E.03923
G1 X87.691 Y125.828 E2.34094
G1 X86.851 Y125.646 E.02695
G1 X86.114 Y125.246 E.02629
G1 X84.916 Y124.087 E.05226
G1 X84.533 Y123.55 E.02068
G1 X84.172 Y122.352 E.03923
G1 X84.172 Y87.691 E1.08677
G1 X84.354 Y86.851 E.02695
M73 Q1 S67
G1 X84.754 Y86.114 E.02629
G1 X85.725 Y85.11 E.04379
M204 S1000
G1 X85.994 Y85.373 F10800
M204 S800
G1 F1200
G1 X86.17 Y85.192 E.00792
G1 X86.642 Y84.859 E.01811
G1 X87.675 Y84.549 E.03382
G1 X162.334 Y84.553 E2.34088
G1 X163.005 Y84.703 E.02156
M73 P2 R67
M73 Q2 S67
G1 X163.634 Y85.037 E.02233
G1 X164.813 Y86.175 E.05138
G1 X165.257 Y86.894 E.0265
G1 X165.451 Y87.684 E.02551
G1 X165.451 Y122.29 E1.08505
G1 X165.302 Y122.994 E.02256
G1 X164.927 Y123.682 E.02457
G1 X163.83 Y124.808 E.04929
G1 X163.358 Y125.141 E.01811
G1 X162.325 Y125.451 E.03382
G1 X87.71 Y125.451 E2.3395
G1 X87.006 Y125.302 E.02256
G1 X86.318 Y124.927 E.02457
G1 X85.192 Y123.83 E.04929
G1 X84.859 Y123.358 E.01811
G1 X84.549 Y122.325 E.03382
G1 X84.549 Y87.71 E1.08533
G1 X84.698 Y87.006 E.02256
G1 X85.073 Y86.318 E.02457
G1 X85.952 Y85.416 E.03949
M204 S1000
G1 X86.22 Y85.679 F10800
M204 S800
G1 F1200
G1 X86.426 Y85.469 E.00922
G1 X86.832 Y85.185 E.01554
G1 X87.703 Y84.926 E.02849
G1 X162.312 Y84.93 E2.33931
G1 X162.894 Y85.064 E.01873
G1 X163.431 Y85.355 E.01915
G1 X164.534 Y86.429 E.04827
G1 X164.899 Y87.016 E.02167
G1 X165.074 Y87.708 E.02238
G1 X165.074 Y122.269 E1.08364
G1 X164.939 Y122.885 E.01977
G1 X164.611 Y123.476 E.02119
G1 X163.574 Y124.531 E.04638
G1 X163.168 Y124.815 E.01554
G1 X162.297 Y125.074 E.02849
G1 X87.731 Y125.074 E2.33796
G1 X87.115 Y124.939 E.01977
G1 X86.524 Y124.611 E.02119
G1 X85.469 Y123.574 E.04638
G1 X85.185 Y123.168 E.01554
G1 X84.926 Y122.297 E.02849
G1 X84.926 Y87.731 E1.08379
G1 X85.061 Y87.115 E.01977
G1 X85.389 Y86.524 E.02119
G1 X86.178 Y85.722 E.03527
M204 S1000
G1 X86.445 Y85.986 F10800
M204 S800
G1 F1200
G1 X86.681 Y85.748 E.01051
G1 X87.021 Y85.513 E.01296
G1 X87.73 Y85.303 E.02318
G1 X162.289 Y85.307 E2.33775
G1 X162.779 Y85.424 E.0158
G1 X163.224 Y85.672 E.01597
G1 X164.252 Y86.681 E.04516
G1 X164.562 Y87.187 E.01861
G1 X164.697 Y87.73 E.01754
G1 X164.697 Y122.248 E1.08229
G1 X164.578 Y122.773 E.01688
G1 X164.297 Y123.266 E.01779
G1 X163.319 Y124.252 E.04354
G1 X162.979 Y124.487 E.01296
G1 X162.27 Y124.697 E.02318
G1 X87.752 Y124.697 E2.33646
G1 X87.227 Y124.578 E.01688
M73 P2 R66
G1 X86.734 Y124.297 E.01779
G1 X85.748 Y123.319 E.04354
G1 X85.513 Y122.979 E.01296
G1 X85.303 Y122.27 E.02318
G1 X85.303 Y87.752 E1.08229
G1 X85.422 Y87.227 E.01688
G1 X85.703 Y86.734 E.01779
G1 X86.402 Y86.029 E.03113
M204 S1000
G1 X86.668 Y86.294 F10800
M204 S800
G1 F1200
G1 X86.934 Y86.028 E.01179
G1 X87.208 Y85.842 E.01038
G1 X87.756 Y85.68 E.01792
G1 X162.265 Y85.684 E2.33618
G1 X162.661 Y85.783 E.0128
G1 X163.014 Y85.986 E.01277
G1 X163.971 Y86.933 E.04221
G1 X164.205 Y87.31 E.01391
G1 X164.32 Y87.755 E.01441
G1 X164.32 Y122.225 E1.08078
G1 X164.218 Y122.657 E.01392
G1 X163.985 Y123.053 E.01441
G1 X163.066 Y123.972 E.04075
G1 X162.792 Y124.158 E.01038
G1 X162.244 Y124.32 E.01792
G1 X87.775 Y124.32 E2.33492
G1 X87.343 Y124.218 E.01392
M73 P3 R66
M73 Q3 S67
G1 X86.947 Y123.985 E.01441
G1 X86.028 Y123.066 E.04075
G1 X85.842 Y122.792 E.01038
G1 X85.68 Y122.244 E.01792
G1 X85.68 Y87.775 E1.08075
G1 X85.782 Y87.343 E.01392
G1 X86.015 Y86.947 E.01441
G1 X86.625 Y86.337 E.02705
M204 S1000
G1 X86.902 Y86.632 F10800
M204 S800
G1 F1200
G1 X87.392 Y86.172 E.02107
G1 X87.783 Y86.057 E.01278
G1 X162.242 Y86.061 E2.33461
G1 X162.805 Y86.3 E.01918
G1 X163.69 Y87.185 E.03924
G1 X163.943 Y87.781 E.0203
G1 X163.943 Y122.205 E1.07934
G1 X163.7 Y122.805 E.0203
G1 X162.608 Y123.828 E.04692
G1 X162.217 Y123.943 E.01278
G1 X87.795 Y123.943 E2.33345
G1 X87.195 Y123.7 E.0203
G1 X86.172 Y122.608 E.04692
G1 X86.057 Y122.217 E.01278
G1 X86.057 Y87.795 E1.07928
G1 X86.3 Y87.195 E.0203
G1 X86.858 Y86.673 E.02396
M204 S1000
G1 X87.107 Y86.922 F10800
M204 S800
G1 F1200
G1 X87.438 Y86.59 E.0147
G1 X87.81 Y86.434 E.01265
G1 X162.339 Y86.467 E2.3368
G1 X162.559 Y86.587 E.00786
M73 Q3 S66
G1 X163.41 Y87.438 E.03773
G1 X163.566 Y87.81 E.01265
G1 X163.532 Y122.341 E1.0827
G1 X163.413 Y122.559 E.00779
G1 X162.562 Y123.41 E.03773
G1 X162.19 Y123.566 E.01265
G1 X87.659 Y123.532 E2.33687
G1 X87.441 Y123.413 E.00779
G1 X86.59 Y122.562 E.03773
G1 X86.434 Y122.19 E.01265
G1 X86.434 Y87.814 E1.07784
G1 X86.587 Y87.441 E.01264
G1 X87.064 Y86.964 E.02115
M204 S1000
G1 X87.332 Y87.234 F10800
M204 S800
G1 F1200
G1 X87.718 Y86.852 E.01703
G1 X162.198 Y86.817 E2.33527
G1 X163.131 Y87.693 E.04013
G1 X163.189 Y87.843 E.00504
G1 X163.189 Y122.169 E1.07627
G1 X163.123 Y122.315 E.00502
G1 X162.282 Y123.148 E.03711
G1 X87.831 Y123.189 E2.33436
G1 X87.685 Y123.123 E.00502
G1 X86.852 Y122.282 E.03711
G1 X86.811 Y87.831 E1.08019
G1 X86.877 Y87.685 E.00502
G1 X87.289 Y87.276 E.0182
M204 S1000
; printing object Bin-Mate Pico Case (Base) id:0 copy 0
;WIPE_START
G1 F8640
G1 X87.332 Y87.234 E-.01388
G1 X87.718 Y86.852 E-.1254
G1 X90.579 Y86.851 E-.66072
;WIPE_END
G1 Z.6 F720
G1 X150.346 Y110.7 F10800
G1 Z.2 F720
G1 E.8 F2100
M204 S800
;TYPE:Support material
G1 F1200
G1 X149.423 Y112.298 E.05786
G1 X147.577 Y112.298 E.05788
G1 X146.654 Y110.7 E.05786
G1 X147.577 Y109.102 E.05786
G1 X149.423 Y109.102 E.05788
G1 X150.317 Y110.651 E.05608
M204 S1000
G1 X149.72 Y111.445 F10800
M204 S800
G1 F1200
G1 X149.72 Y110.294 E.03609
G1 X149.301 Y109.569 E.02626
G1 X149.301 Y111.831 E.07092
G1 X149.227 Y111.959 E.00464
G1 X148.882 Y111.959 E.01082
G1 X148.882 Y109.441 E.07895
G1 X148.463 Y109.441 E.01314
G1 X148.463 Y111.959 E.07895
G1 X148.044 Y111.959 E.01314
G1 X148.044 Y109.441 E.07895
G1 X147.773 Y109.441 E.0085
G1 X147.625 Y109.698 E.0093
G1 X147.625 Y111.702 E.06283
G1 X147.206 Y110.977 E.02626
G1 X147.206 Y110.084 E.028
M204 S1000
;WIPE_START
G1 F8640
G1 X147.206 Y110.977 E-.2062
G1 X147.625 Y111.702 E-.19335
G1 X147.625 Y109.968 E-.40045
;WIPE_END
G1 Z.6 F720
G1 X150.346 Y99.3 F10800
G1 Z.2 F720
G1 E.8 F2100
M204 S800
G1 F1200
G1 X149.423 Y100.898 E.05786
G1 X147.577 Y100.898 E.05788
G1 X146.654 Y99.3 E.05786
G1 X147.577 Y97.702 E.05786
G1 X149.423 Y97.702 E.05788
G1 X150.317 Y99.251 E.05608
M204 S1000
G1 X149.72 Y100.045 F10800
M204 S800
G1 F1200
M73 P4 R66
G1 X149.72 Y98.894 E.03609
G1 X149.301 Y98.169 E.02626
G1 X149.301 Y100.431 E.07092
G1 X149.227 Y100.559 E.00464
G1 X148.882 Y100.559 E.01082
G1 X148.882 Y98.041 E.07895
G1 X148.463 Y98.041 E.01314
G1 X148.463 Y100.559 E.07895
G1 X148.044 Y100.559 E.01314
G1 X148.044 Y98.041 E.07895
G1 X147.773 Y98.041 E.0085
M73 Q4 S66
G1 X147.625 Y98.298 E.0093
G1 X147.625 Y100.302 E.06283
G1 X147.206 Y99.577 E.02626
G1 X147.206 Y98.684 E.028
M204 S1000
;WIPE_START
G1 F8640
G1 X147.206 Y99.577 E-.2062
G1 X147.625 Y100.302 E-.19335
G1 X147.625 Y98.568 E-.40045
;WIPE_END
G1 Z.6 F720
G1 X103.346 Y110.7 F10800
G1 Z.2 F720
G1 E.8 F2100
M204 S800
G1 F1200
G1 X102.423 Y112.298 E.05786
G1 X100.577 Y112.298 E.05788
G1 X99.654 Y110.7 E.05786
G1 X100.577 Y109.102 E.05786
G1 X102.423 Y109.102 E.05788
G1 X103.317 Y110.651 E.05608
M204 S1000
G1 X102.794 Y111.316 F10800
M204 S800
G1 F1200
G1 X102.794 Y110.423 E.028
G1 X102.375 Y109.698 E.02626
G1 X102.375 Y111.702 E.06283
G1 X102.227 Y111.959 E.0093
G1 X101.956 Y111.959 E.0085
G1 X101.956 Y109.441 E.07895
G1 X101.537 Y109.441 E.01314
G1 X101.537 Y111.959 E.07895
G1 X101.118 Y111.959 E.01314
G1 X101.118 Y109.441 E.07895
G1 X100.773 Y109.441 E.01082
G1 X100.699 Y109.569 E.00464
G1 X100.699 Y111.831 E.07092
G1 X100.28 Y111.106 E.02626
G1 X100.28 Y109.955 E.03609
M204 S1000
;WIPE_START
G1 F8640
G1 X100.28 Y111.106 E-.26577
G1 X100.699 Y111.831 E-.19335
G1 X100.699 Y110.354 E-.34088
;WIPE_END
G1 Z.6 F720
G1 X103.346 Y99.3 F10800
G1 Z.2 F720
G1 E.8 F2100
M204 S800
G1 F1200
G1 X102.423 Y100.898 E.05786
G1 X100.577 Y100.898 E.05788
G1 X99.654 Y99.3 E.05786
G1 X100.577 Y97.702 E.05786
G1 X102.423 Y97.702 E.05788
G1 X103.317 Y99.251 E.05608
M204 S1000
G1 X102.794 Y99.916 F10800
M204 S800
G1 F1200
G1 X102.794 Y99.023 E.028
G1 X102.375 Y98.298 E.02626
G1 X102.375 Y100.302 E.06283
G1 X102.227 Y100.559 E.0093
G1 X101.956 Y100.559 E.0085
G1 X101.956 Y98.041 E.07895
G1 X101.537 Y98.041 E.01314
G1 X101.537 Y100.559 E.07895
G1 X101.118 Y100.559 E.01314
G1 X101.118 Y98.041 E.07895
G1 X100.773 Y98.041 E.01082
G1 X100.699 Y98.169 E.00464
G1 X100.699 Y100.431 E.07092
G1 X100.28 Y99.706 E.02626
G1 X100.28 Y98.555 E.03609
M204 S1000
;WIPE_START
G1 F8640
G1 X100.28 Y99.706 E-.26577
G1 X100.699 Y100.431 E-.19335
G1 X100.699 Y98.954 E-.34088
;WIPE_END
G1 Z.6 F720
G1 X88.63 Y80.95 F10800
G1 Z.2 F720
M73 P4 R65
G1 E.8 F2100
M204 S800
G1 F1200
G1 X88.837 Y81.052 E.00724
G1 X89.582 Y80.861 E.02411
G1 X90.335 Y80.811 E.02366
G1 X91.414 Y80.949 E.03411
G1 X91.623 Y81.051 E.00729
G1 X92.365 Y80.861 E.02402
G1 X93.119 Y80.811 E.02369
G1 X94.198 Y80.949 E.03411
G1 X94.406 Y81.051 E.00726
G1 X95.148 Y80.861 E.02402
G1 X95.902 Y80.811 E.02369
G1 X96.981 Y80.949 E.03411
G1 X97.19 Y81.051 E.00729
G1 X97.932 Y80.861 E.02402
G1 X98.687 Y80.811 E.02372
G1 X99.765 Y80.95 E.03408
G1 X99.974 Y81.051 E.00728
G1 X100.716 Y80.861 E.02402
G1 X101.47 Y80.811 E.02369
G1 X102.549 Y80.95 E.03411
G1 X102.787 Y81.066 E.0083
G1 X103.422 Y80.874 E.0208
G1 X104.251 Y80.812 E.02607
G1 X105.054 Y80.895 E.02531
G1 X105.589 Y81.06 E.01755
G1 X106.205 Y80.874 E.02018
G1 X107.034 Y80.812 E.02607
G1 X107.837 Y80.895 E.02531
G1 X108.373 Y81.06 E.01758
G1 X108.989 Y80.874 E.02018
G1 X109.818 Y80.812 E.02607
G1 X110.621 Y80.895 E.02531
G1 X111.156 Y81.06 E.01755
G1 X111.772 Y80.874 E.02018
G1 X112.601 Y80.812 E.02607
G1 X113.404 Y80.895 E.02531
G1 X113.94 Y81.06 E.01758
G1 X114.559 Y80.874 E.02027
G1 X115.386 Y80.812 E.026
G1 X116.191 Y80.896 E.02538
G1 X116.724 Y81.06 E.01749
G1 X117.342 Y80.874 E.02024
G1 X118.169 Y80.812 E.026
G1 X118.974 Y80.896 E.02538
G1 X119.507 Y81.06 E.01749
G1 X120.126 Y80.874 E.02027
G1 X120.953 Y80.812 E.026
G1 X121.757 Y80.896 E.02535
G1 X122.29 Y81.06 E.01749
